communes/979.svg

<?xml version="1.0" encoding="UTF-8" standalone="no"?>
<!-- Created with Inkscape (http://www.inkscape.org/) -->
<svg
   xmlns:svg="http://www.w3.org/2000/svg"
   xmlns="http://www.w3.org/2000/svg"
   version="1.0"
   width="603"
   height="763"
   id="svg20">
  <defs
     id="defs29">
    <linearGradient
       id="linearGradient2893">
      <stop
         id="stop2895"
         style="stop-color:#ffffff;stop-opacity:0.3137255"
         offset="0" />
      <stop
         id="stop2897"
         style="stop-color:#ffffff;stop-opacity:0.25098041"
         offset="0.19" />
      <stop
         id="stop2901"
         style="stop-color:#6b6b6b;stop-opacity:0.1254902"
         offset="0.60000002" />
      <stop
         id="stop2899"
         style="stop-color:#000000;stop-opacity:0.1254902"
         offset="1" />
    </linearGradient>
  </defs>
  <desc
     id="desc22">Coat of Arms of Canton of Freiburg (Fribourg)</desc>
  <g
     id="layer3"
     style="display:inline" />
  <g
     id="layer1"
     style="display:inline" />
  <g
     id="layer2"
     style="display:inline" />
  <g
     id="layer4"
     style="display:inline">
    <g
       id="g3423">
      <path
         d="M 0,3 L 0,461.8679 C 0,628.17854 134.31454,763 299.99993,763 C 465.6854,763 600,628.17854 600,461.8679 L 600,3 L 0,3 z"
         id="path2346"
         style="fill:#ffffff;fill-opacity:1;display:inline" />
      <path
         d="M 1.5,1.49998 L 1.5,460.3679 C 1.5,626.6785 135.81456,761.5 301.49999,761.5 C 467.18543,761.5 601.5,626.6785 601.5,460.3679 L 601.5,1.49998 L 1.5,1.49998 z"
         id="path1899"
         style="fill:#e20909;fill-opacity:1;display:inline" />
      <path
         d="M 2.0625,2.0625 L 2.0625,199.03125 L 463.6875,713.75 C 531.56693,669.87881 580.64859,599.26501 596.21875,516.75 L 137.46875,2.0625 L 2.0625,2.0625 z"
         id="path2326"
         style="fill:#ffffff;fill-opacity:1;fill-rule:evenodd;stroke:#000000;stroke-width:4.10363674px;stroke-linecap:butt;stroke-linejoin:miter;stroke-opacity:1;display:inline" />
      <g
         transform="matrix(4.1036368,0,0,4.1036368,-2570.9284,-2328.8139)"
         id="g3278"
         style="display:inline">
        <path
           d="M 705.68572,614.37145 L 757.59996,614.37145 C 758.7141,601.90233 761.61618,590.9088 770,580.2571 C 764.79409,579.66628 759.27685,577.28297 756.71431,585.40003 C 748.31053,580.64521 742.93904,592.61333 753.08582,595.59997 L 747,594 C 746,593.7371 743,596 739.14441,595.59997 C 750,596 748,583 738.42862,585.40003 C 740,572 723,572 724.65714,585.40003 C 717,584 716,596 725.203,595.59997 C 722.0913,596.00929 720.50093,594.0614 718,594 C 715.91343,593.94877 713.3488,595.41184 711.2616,595.59997 C 720.95895,594.62774 717.50636,580.89683 708.14535,585.40003 C 705.48399,579.7101 700.41382,579.64072 695.04976,580.2571 C 701.31358,589.69417 705.81742,601.2798 705.68572,614.37145 z"
           id="path3333"
           style="fill:#fcef3c;fill-opacity:1;fill-rule:evenodd;stroke:#000000;stroke-width:1;stroke-miterlimit:4;stroke-dasharray:none;stroke-opacity:1" />
        <path
           d="M 733,590 A 1,1 0 1 1 731,590 A 1,1 0 1 1 733,590 z"
           id="path2490"
           style="fill:#fcef3c;fill-opacity:1;fill-rule:evenodd;stroke:#000000;stroke-width:1;stroke-miterlimit:4;stroke-dasharray:none;stroke-opacity:1" />
        <path
           d="M 733,590 A 1,1 0 1 1 731,590 A 1,1 0 1 1 733,590 z"
           transform="translate(9.75,17.5)"
           id="path3262"
           style="fill:#fcef3c;fill-opacity:1;fill-rule:evenodd;stroke:#000000;stroke-width:1;stroke-miterlimit:4;stroke-dasharray:none;stroke-opacity:1;display:inline" />
        <path
           d="M 733,590 A 1,1 0 1 1 731,590 A 1,1 0 1 1 733,590 z"
           transform="translate(-0.5,17.5)"
           id="path3264"
           style="fill:#fcef3c;fill-opacity:1;fill-rule:evenodd;stroke:#000000;stroke-width:1;stroke-miterlimit:4;stroke-dasharray:none;stroke-opacity:1;display:inline" />
        <path
           d="M 733,590 A 1,1 0 1 1 731,590 A 1,1 0 1 1 733,590 z"
           transform="translate(-10.75,17.5)"
           id="path3266"
           style="fill:#fcef3c;fill-opacity:1;fill-rule:evenodd;stroke:#000000;stroke-width:1;stroke-miterlimit:4;stroke-dasharray:none;stroke-opacity:1;display:inline" />
        <path
           d="M 733,590 A 1,1 0 1 1 731,590 A 1,1 0 1 1 733,590 z"
           transform="translate(20,17.5)"
           id="path3268"
           style="fill:#fcef3c;fill-opacity:1;fill-rule:evenodd;stroke:#000000;stroke-width:1;stroke-miterlimit:4;stroke-dasharray:none;stroke-opacity:1;display:inline" />
        <path
           d="M 733,590 A 1,1 0 1 1 731,590 A 1,1 0 1 1 733,590 z"
           transform="translate(-21,17.5)"
           id="path3270"
           style="fill:#fcef3c;fill-opacity:1;fill-rule:evenodd;stroke:#000000;stroke-width:1;stroke-miterlimit:4;stroke-dasharray:none;stroke-opacity:1;display:inline" />
        <path
           d="M 704,601 L 760,601"
           id="path3272"
           style="fill:#fcef3c;fill-opacity:1;fill-rule:evenodd;stroke:#000000;stroke-width:1;stroke-miterlimit:4;stroke-dasharray:none;stroke-opacity:1" />
        <path
           d="M 705,605 L 759,605"
           id="path3274"
           style="fill:#fcef3c;fill-opacity:1;fill-rule:evenodd;stroke:#000000;stroke-width:1;stroke-miterlimit:4;stroke-dasharray:none;stroke-opacity:1" />
        <path
           d="M 706,610 L 758,610"
           id="path3276"
           style="fill:#fcef3c;fill-opacity:1;fill-rule:evenodd;stroke:#000000;stroke-width:1;stroke-miterlimit:4;stroke-dasharray:none;stroke-opacity:1" />
      </g>
      <g
         id="g2594"
         style="display:inline">
        <g
           transform="translate(2.2043428,-16.45517)"
           id="g2526">
          <g
             transform="matrix(4.1036368,0,0,4.1036368,-2942.8676,-2573.6494)"
             id="g3322"
             style="display:inline">
            <path
               d="M 756,698 C 763,682 738,672 739,679 C 731,679 742,705 756,698 z"
               id="path3324"
               style="fill:#5ab532;fill-opacity:0.99601596;fill-rule:evenodd;stroke:#000000;stroke-width:1;stroke-miterlimit:4;stroke-dasharray:none;stroke-opacity:1" />
            <path
               d="M 761,701 C 754.68618,695.96097 750,691 744,685 C 750,691 755,696 759,703 L 761,701 z"
               id="path3326"
               style="fill:#5ab532;fill-opacity:0.99601596;fill-rule:evenodd;stroke:#000000;stroke-width:1;stroke-miterlimit:4;stroke-dasharray:none;stroke-opacity:1" />
          </g>
          <g
             transform="matrix(4.1036368,0,0,4.1036368,-2934.6603,-2701.8567)"
             id="g3334"
             style="display:inline">
            <path
               d="M 756,698 C 763,682 738,672 739,679 C 731,679 742,705 756,698 z"
               id="path3336"
               style="fill:#5ab532;fill-opacity:0.99601596;fill-rule:evenodd;stroke:#000000;stroke-width:1;stroke-miterlimit:4;stroke-dasharray:none;stroke-opacity:1" />
            <path
               d="M 761,701 C 754.68618,695.96097 750,691 744,685 C 750,691 755,696 759,703 L 761,701 z"
               id="path3338"
               style="fill:#5ab532;fill-opacity:0.99601596;fill-rule:evenodd;stroke:#000000;stroke-width:1;stroke-miterlimit:4;stroke-dasharray:none;stroke-opacity:1" />
          </g>
        </g>
        <g
           transform="translate(-6.6240169,-6.4061646)"
           id="g2534">
          <g
             transform="matrix(4.1036368,0,0,4.1036368,-2780.5567,-2413.1312)"
             id="g2502"
             style="display:inline">
            <path
               d="M 756,698 C 763,682 738,672 739,679 C 731,679 742,705 756,698 z"
               id="path2504"
               style="fill:#5ab532;fill-opacity:0.99601596;fill-rule:evenodd;stroke:#000000;stroke-width:1;stroke-miterlimit:4;stroke-dasharray:none;stroke-opacity:1" />
            <path
               d="M 761,701 C 754.68618,695.96097 750,691 744,685 C 750,691 755,696 759,703 L 761,701 z"
               id="path2506"
               style="fill:#5ab532;fill-opacity:0.99601596;fill-rule:evenodd;stroke:#000000;stroke-width:1;stroke-miterlimit:4;stroke-dasharray:none;stroke-opacity:1" />
          </g>
          <g
             transform="matrix(4.1036368,0,0,4.1036368,-2772.3494,-2541.3385)"
             id="g2508"
             style="display:inline">
            <path
               d="M 756,698 C 763,682 738,672 739,679 C 731,679 742,705 756,698 z"
               id="path2510"
               style="fill:#5ab532;fill-opacity:0.99601596;fill-rule:evenodd;stroke:#000000;stroke-width:1;stroke-miterlimit:4;stroke-dasharray:none;stroke-opacity:1" />
            <path
               d="M 761,701 C 754.68618,695.96097 750,691 744,685 C 750,691 755,696 759,703 L 761,701 z"
               id="path2512"
               style="fill:#5ab532;fill-opacity:0.99601596;fill-rule:evenodd;stroke:#000000;stroke-width:1;stroke-miterlimit:4;stroke-dasharray:none;stroke-opacity:1" />
          </g>
        </g>
        <g
           transform="translate(6.8585378,4.1610365)"
           id="g2542">
          <g
             transform="matrix(4.1036368,0,0,4.1036368,-2640.5567,-2253.1312)"
             id="g2514"
             style="display:inline">
            <path
               d="M 756,698 C 763,682 738,672 739,679 C 731,679 742,705 756,698 z"
               id="path2516"
               style="fill:#5ab532;fill-opacity:0.99601596;fill-rule:evenodd;stroke:#000000;stroke-width:1;stroke-miterlimit:4;stroke-dasharray:none;stroke-opacity:1" />
            <path
               d="M 761,701 C 754.68618,695.96097 750,691 744,685 C 750,691 755,696 759,703 L 761,701 z"
               id="path2518"
               style="fill:#5ab532;fill-opacity:0.99601596;fill-rule:evenodd;stroke:#000000;stroke-width:1;stroke-miterlimit:4;stroke-dasharray:none;stroke-opacity:1" />
          </g>
          <g
             transform="matrix(4.1036368,0,0,4.1036368,-2632.3494,-2381.3385)"
             id="g2520"
             style="display:inline">
            <path
               d="M 756,698 C 763,682 738,672 739,679 C 731,679 742,705 756,698 z"
               id="path2522"
               style="fill:#5ab532;fill-opacity:0.99601596;fill-rule:evenodd;stroke:#000000;stroke-width:1;stroke-miterlimit:4;stroke-dasharray:none;stroke-opacity:1" />
            <path
               d="M 761,701 C 754.68618,695.96097 750,691 744,685 C 750,691 755,696 759,703 L 761,701 z"
               id="path2524"
               style="fill:#5ab532;fill-opacity:0.99601596;fill-rule:evenodd;stroke:#000000;stroke-width:1;stroke-miterlimit:4;stroke-dasharray:none;stroke-opacity:1" />
          </g>
        </g>
      </g>
      <path
         d="M 1.5000001,1.5000035 L 1.5000001,460.36794 C 1.5000001,626.67854 135.81454,761.5 301.49993,761.5 C 467.1854,761.5 601.5,626.67854 601.5,460.36794 L 601.5,1.5000035 L 1.5000001,1.5000035 z"
         id="path3239"
         style="fill:none;fill-opacity:1;stroke:#000000;stroke-width:4;stroke-miterlimit:4;stroke-dasharray:none;stroke-opacity:1" />
    </g>
  </g>
</svg>

<?xml version="1.0" encoding="UTF-8"?>
<svg version="1.0" viewBox="0 0 603 763" xmlns="http://www.w3.org/2000/svg">
<desc>Coat of Arms of Canton of Freiburg (Fribourg)</desc>
<g>
<path d="m0 3v458.87c0 166.31 134.31 301.13 300 301.13 165.69 0 300-134.82 300-301.13v-458.87h-600z" fill="#fff"/>
<path d="m1.5 1.5v458.87c0 166.31 134.31 301.13 300 301.13 165.69 0 300-134.82 300-301.13v-458.87h-600z" fill="#e20909"/>
<path d="m2.0625 2.0625v196.97l461.62 514.72c67.879-43.871 116.96-114.48 132.53-197l-458.75-514.69h-135.41z" fill="#fff" fill-rule="evenodd" stroke="#000" stroke-width="4.1036px"/>
<g transform="matrix(4.1036 0 0 4.1036 -2570.9 -2328.8)" fill="#fcef3c" fill-rule="evenodd" stroke="#000">
<path d="m705.69 614.37h51.914c1.1141-12.469 4.0162-23.463 12.4-34.114-5.2059-0.59082-10.723-2.9741-13.286 5.1429-8.4038-4.7548-13.775 7.2133-3.6285 10.2l-6.0858-1.6c-1-0.2629-4 2-7.8556 1.6 10.856 0.40003 8.8556-12.6-0.71579-10.2 1.5714-13.4-15.429-13.4-13.771 0-7.6571-1.4-8.6571 10.6 0.54586 10.2-3.1117 0.40932-4.7021-1.5386-7.203-1.6-2.0866-0.05123-4.6512 1.4118-6.7384 1.6 9.6974-0.97223 6.2448-14.703-3.1162-10.2-2.6614-5.6899-7.7315-5.7593-13.096-5.1429 6.2638 9.4371 10.768 21.023 10.636 34.114z"/>
<path d="m733 590a1 1 0 1 1-2 0 1 1 0 1 1 2 0z"/>
<path transform="translate(9.75,17.5)" d="m733 590a1 1 0 1 1-2 0 1 1 0 1 1 2 0z"/>
<path transform="translate(-.5 17.5)" d="m733 590a1 1 0 1 1-2 0 1 1 0 1 1 2 0z"/>
<path transform="translate(-10.75,17.5)" d="m733 590a1 1 0 1 1-2 0 1 1 0 1 1 2 0z"/>
<path transform="translate(20,17.5)" d="m733 590a1 1 0 1 1-2 0 1 1 0 1 1 2 0z"/>
<path transform="translate(-21,17.5)" d="m733 590a1 1 0 1 1-2 0 1 1 0 1 1 2 0z"/>
<path d="m704 601h56"/>
<path d="m705 605h54"/>
<path d="m706 610h52"/>
</g>
<g fill="#5ab532" fill-opacity=".99602" fill-rule="evenodd" stroke="#000">
<g transform="translate(2.2043 -16.455)">
<g transform="matrix(4.1036 0 0 4.1036 -2942.9 -2573.6)">
<path d="m756 698c7-16-18-26-17-19-8 0 3 26 17 19z"/>
<path d="m761 701c-6.3138-5.039-11-10-17-16 6 6 11 11 15 18l2-2z"/>
</g>
<g transform="matrix(4.1036 0 0 4.1036 -2934.7 -2701.9)">
<path d="m756 698c7-16-18-26-17-19-8 0 3 26 17 19z"/>
<path d="m761 701c-6.3138-5.039-11-10-17-16 6 6 11 11 15 18l2-2z"/>
</g>
</g>
<g transform="translate(-6.624 -6.4062)">
<g transform="matrix(4.1036 0 0 4.1036 -2780.6 -2413.1)">
<path d="m756 698c7-16-18-26-17-19-8 0 3 26 17 19z"/>
<path d="m761 701c-6.3138-5.039-11-10-17-16 6 6 11 11 15 18l2-2z"/>
</g>
<g transform="matrix(4.1036 0 0 4.1036 -2772.3 -2541.3)">
<path d="m756 698c7-16-18-26-17-19-8 0 3 26 17 19z"/>
<path d="m761 701c-6.3138-5.039-11-10-17-16 6 6 11 11 15 18l2-2z"/>
</g>
</g>
<g transform="translate(6.8585 4.161)">
<g transform="matrix(4.1036 0 0 4.1036 -2640.6 -2253.1)">
<path d="m756 698c7-16-18-26-17-19-8 0 3 26 17 19z"/>
<path d="m761 701c-6.3138-5.039-11-10-17-16 6 6 11 11 15 18l2-2z"/>
</g>
<g transform="matrix(4.1036 0 0 4.1036 -2632.3 -2381.3)">
<path d="m756 698c7-16-18-26-17-19-8 0 3 26 17 19z"/>
<path d="m761 701c-6.3138-5.039-11-10-17-16 6 6 11 11 15 18l2-2z"/>
</g>
</g>
</g>
<path d="m1.5 1.5v458.87c0 166.31 134.31 301.13 300 301.13 165.69 0 300-134.82 300-301.13v-458.87h-600z" fill="none" stroke="#000" stroke-width="4"/>
</g>
</svg>
